packages/foundations/assets/icons/functional/images/transportation/handcart_20.svg

<svg width="20" height="20" viewBox="0 0 20 20" fill="none" xmlns="http://www.w3.org/2000/svg">
<g clip-path="url(#clip0_2214_7285)">
<path fill-rule="evenodd" clip-rule="evenodd" d="M4.50037 14C5.32879 14 6.00037 14.6716 6.00037 15.5C6.00037 16.3284 5.32879 17 4.50037 17C3.67194 17 3.00037 16.3284 3.00037 15.5C3.00037 14.6716 3.67194 14 4.50037 14ZM11.5004 14C12.3288 14 13.0004 14.6716 13.0004 15.5C13.0004 16.3284 12.3288 17 11.5004 17C10.6719 17 10.0004 16.3284 10.0004 15.5C10.0004 14.6716 10.6719 14 11.5004 14ZM8.64456 14.75C9.05877 14.75 9.39456 15.0858 9.39456 15.5C9.39456 15.8797 9.07972 16.25 8.64456 16.25H7.50037C7.08615 16.25 6.75037 15.9142 6.75037 15.5C6.75037 15.1203 7.06869 14.75 7.50037 14.75H8.64456ZM14.0369 3C15.4786 3 16.707 4.02329 16.9807 5.4218C17.6484 10.3392 17.9852 12.8207 17.9914 12.8662C18.05 13.3371 17.7884 13.7137 17.45 13.8935L15.4476 14.8944C14.9536 15.1414 14.3529 14.9412 14.1059 14.4472C13.8766 13.9885 14.0344 13.3768 14.5532 13.1056L15.9124 12.425L15.0279 5.86617C14.9661 5.40827 14.5995 4.99881 14.0004 4.99881C13.4481 4.99881 13.0158 4.55228 13.0158 4C13.0158 3.48716 13.419 3 14.0369 3ZM13.0004 7C13.5527 7 14.0004 7.44772 14.0004 8C14.0004 8.51284 13.5829 8.99327 13.0158 9.00011L12.9994 11C13.0158 12.547 12.5302 13 10.9994 12.998H4.99693C3.42688 13 2.99937 12.5136 2.99937 11V8.99327C2.4109 8.99327 2.00037 8.51284 2.00037 8C2.00037 7.48716 2.42362 7 2.99937 7H13.0004ZM10.9994 9H4.99937L5.00037 11H11.0004L10.9994 9Z" fill="#1A1C1F"/>
</g>
<defs>
<clipPath id="clip0_2214_7285">
<rect width="20" height="20" fill="white"/>
</clipPath>
</defs>
</svg>

<svg xmlns="http://www.w3.org/2000/svg" width="20" height="20" fill="none"><g clip-path="url(#a)"><path fill="#1A1C1F" fill-rule="evenodd" d="M4.5 14a1.5 1.5 0 1 1 0 3 1.5 1.5 0 0 1 0-3m7 0a1.5 1.5 0 1 1 0 3 1.5 1.5 0 0 1 0-3m-2.855.75a.75.75 0 0 1 .75.75c0 .38-.315.75-.75.75H7.5a.75.75 0 0 1-.75-.75c0-.38.319-.75.75-.75zM14.037 3a3 3 0 0 1 2.944 2.422l1.01 7.444c.059.471-.203.848-.541 1.027l-2.002 1.001a1 1 0 0 1-1.342-.447 1.01 1.01 0 0 1 .447-1.341l1.36-.681-.885-6.559C14.966 5.408 14.6 5 14 5A.986.986 0 0 1 13.016 4c0-.513.403-1 1.02-1M13 7a1 1 0 0 1 1 1c0 .513-.417.993-.984 1l-.017 2c.017 1.547-.469 2-2 1.998H4.997C3.427 13 2.999 12.514 2.999 11V8.993A.995.995 0 0 1 2 8c0-.513.424-1 1-1zm-2 2H5v2h6z" clip-rule="evenodd"/></g><defs><clipPath id="a"><path fill="#fff" d="M0 0h20v20H0z"/></clipPath></defs></svg>
